X:1
T:C minor Walter Janes, 1807
T:Isaac Watts, 1717 (Psalm 51, Part 1)                88. 88. (L. M.)
T:Repentance
T:Transcribed from The Harmonic Minstrelsey, 1807.
%%score [ 1 2 3 ]
L:1/8
Q:1/4=150
M:3/2
K:Eb
V:1 treble nm="Tr." snm="Tr."
V:2 treble-8 nm="T." snm="T."
V:3 bass nm="B." snm="B."
V:1
"^2. My     crimes      are         great,  but  not                  sur–pass    The  power  and       glo  –  ry           of                  thy     grace:  Great""^1. Show pi       –     ty,            Lord,   O     Lord,             for – give,    Let   a        re   –           pen – ting       sin      –       ner        live:   Are" G4 | %1
 (c3 d e4) (G2 F2) | (E4 D4) G4 | (A2 G2 F2 E2) D4 | E8 G4 | e8 d>edc | B8 (f2 e2) | %7
 (d3 c =B4) =A4 | G8 e4 | %9
"^1. not    thy   mer  –    cies        large  and free?     May     not                the        con       –        trite      trust      in   thee?       Are not   thy""^2. God, thy    na    –    ture       hath    no  bound,   So        let                  thy       par       –      doning  love       be found. Great God, thy" (e4 d4) e4 | %10
 (e4 d4) (c3 B) | (G4 F4) e4 | (e4 d4) z4 | z12 | z12 | z12 | z8 G4 | e8 d4 | %18
"^1. mercies      large              and       free?       May   not    the       con – trite    trust  in   thee?""^2. nature        hath               no          bound,    So      let     thy       pardoning  love   be found." e8 G4 | %19
 (A2 G2 F2 E2) (f2 e2) | (e4 d4) e4 | d8 (e2 d2) | c8 (d2 c2) | =B8 TB4 | c12 |] %25
V:2
"^3. O      wash          my           soul   from eve       –       ry      sin,   And  make  my               guil – ty       con       –     science clean;  Here""^4. My   lips              with       shame my  sins              con–fess    A  – gainst   thy              law,     a   –   gainst            thy      grace:   Lord," c4 | %1
 (e3 d c4) (B2 =A2) | (G4 F4) g4 | (f2 e2 d2 c2) =B4 | c8 d4 | e8 f>gfe | e8 (d2 c2) | %7
 =B8 (c2 d2) | e8 G4 | %9
"^3.  on      my   heart     the        burden      lies,          And  past              of    –    fen         –        ses         pain      my     eyes.  Here  on  my""^4.  should thy judgment        grow se – vere,          I         am                con –   demned,        but         thou art  clear.  Lord, should thy" (G4 F4) c4 | %10
 (c4 =B4) e4 | (e4 d4) c4 | (c4 =B4) G4 | (G2 F2 A2 G2) G4 | (c2 =B2 e2 d2) (c2 B2) | %15
 (A2 F2 B4) =A4 | B8 d4 | e8 f4 | %18
"^3.  heart  the bur       –        den        lies,        And   past   of   –    fen– ces      pain  my   eyes.""^4. judgment  grow              se     –    vere,        I         am     condemned, but   thou  art   clear." g8 =B4 | %19
 (c2 g2 f2 e2) (d2 c2) | (c4 =B4) [eg]4 | f8 (g2 f2) | e8 (f2 e2) | d8 Td4 | c12 |] %25
V:3
"^5. Should sud – den       vengeance  seize             my  breath,    I   must  pro    –   nounce thee      just                 in      death; And""^6. Yet     save          a            trembling    sin       –      ner,  Lord,  Whose hope, still     ho–vering        round            thy    word,  Would" C,4 | %1
 C,8 (E,2 F,2) | B,,8 E,4 | F,8 G,4 | C,8 G,,4 | C,8 B,,4 | E,8 F,4 | G,8 TF,4 | E,8 E,4 | %9
"^5. if         my    soul      were     sent     to     hell,       Thy  right      –     eous      law                  ap   –   proves     it      well.  And   if     my""^6. light   on    some    sweet   pro – mise  there,    Some  sure            sup  –   port                 a      –   gainst    despair.  Would light on" B,,8 C,4 | %10
 G,,8 =A,,4 | B,,8 C,4 | [G,,G,]8 G,4 | (G,2 F,2 F,2 E,2) (E,3 F,) | G,8 E,4 | F,8 F,4 | %16
 B,,8 G,,4 | C,8 B,,4 | %18
"^5. soul were sent                 to            hell,       Thy  righteous     law    approves       it    well.""^6. some sweet  pro      –     mise       there,   Some  sure  sup – port   a   –  gainst   despair." E,8 G,4 | %19
 (F,2 E,2 D,2 C,2) (=B,,2 C,2) | %20
"^__________________________________________\nEdited by B. C. Johnston, 2016\nGrace notes following converted to eighth notes in Measure 11, Treble and Measure 14, Bass." [G,,G,]8 E,4 | %21
 [B,,B,]8 G,4 | A,8 F,4 | G,8 G,,4 | C,12 |] %25

